rich-content-editor/src/RichContentEditor/Toolbars/icons/title-two.svg

<?xml version="1.0" encoding="UTF-8" standalone="no"?>
<svg viewBox="0 0 19 19" version="1.1" xmlns="http://www.w3.org/2000/svg" xmlns:xlink="http://www.w3.org/1999/xlink">
    <g stroke="none" stroke-width="1" fill="none" fill-rule="evenodd">
        <g fill-rule="nonzero" fill="#0261FF">
            <path d="M9,8 L11.8,8 C11.9104569,8 12,7.91045695 12,7.8 L12,6.2 C12,6.08954305 11.9104569,6 11.8,6 L11.8,6 L4.2,6 L4.2,6 C4.08954305,6 4,6.08954305 4,6.2 L4,6.2 L4,7.8 C4,7.91045695 4.08954305,8 4.2,8 L7,8 L7,14.8 C7,14.9104569 7.08954305,15 7.2,15 L8.8,15 C8.91045695,15 9,14.9104569 9,14.8 L9,8 Z M12.2,14 L13,14 L13,13.2 C13,13.0895431 13.0895431,13 13.2,13 L14,13 L14,14 L14.8,14 C14.9104569,14 15,14.0895431 15,14.2 L15,14.8 C15,14.9104569 14.9104569,15 14.8,15 L12.2,15 C12.0895431,15 12,14.9104569 12,14.8 L12,14.2 C12,14.0895431 12.0895431,14 12.2,14 Z M12,11.8 L12,11.2 C12,11.0895431 12.0895431,11 12.2,11 L14.8,11 C14.9104569,11 15,11.0895431 15,11.2 L15,12.8 C15,12.9104569 14.9104569,13 14.8,13 L14,13 L14,12 L12.2,12 C12.0895431,12 12,11.9104569 12,11.8 Z"></path>
        </g>
    </g>
</svg>

<svg viewBox="0 0 19 19">
  <path d="M9 8h2.8a.2.2 0 0 0 .2-.2V6.2a.2.2 0 0 0-.2-.2H4.2a.2.2 0 0 0-.2.2v1.6c0 .11.09.2.2.2H7v6.8c0 .11.09.2.2.2h1.6a.2.2 0 0 0 .2-.2V8zm3.2 6h.8v-.8c0-.11.09-.2.2-.2h.8v1h.8c.11 0 .2.09.2.2v.6a.2.2 0 0 1-.2.2h-2.6a.2.2 0 0 1-.2-.2v-.6c0-.11.09-.2.2-.2zm-.2-2.2v-.6c0-.11.09-.2.2-.2h2.6c.11 0 .2.09.2.2v1.6a.2.2 0 0 1-.2.2H14v-1h-1.8a.2.2 0 0 1-.2-.2z" fill="currentColor"/>
</svg>
